X:676
T:Apple Tree #2, The
C:Joe Buchanan's Scottish Tome - Page 208.2
I:208 2
Z:Carl Allison
R:Reel
R:March
L:1/8
M:4/4
K:A
"A"A2 a2 fecB | "A"Aaga "F#m"fedc | "Bm"Bcde fBBc | "Bm"Bcde "E7"fefa |
"A"A2 a2 fecB | "A"Aaga "F#m"fedc | "Bm"Bcde fBBa | "E7"gefg "A"a2 A2 |
"A"EAAB cBAF | "A"EAAB cBAG | "Bm"FBBc dcBA | "E7"GABc defe |
"A"EAAB cBAF | "A"EAAB cBAG | "Bm"FBBc dcBA | "E7"GEFG "A"A2- A :|

